tools/download-figma-icons/icons/outlined-large/emob-cable-smooth.svg

<svg width="64" height="64" viewBox="0 0 64 64" fill="none" xmlns="http://www.w3.org/2000/svg">
<path fill-rule="evenodd" clip-rule="evenodd" d="M56.0674 31.6642C54.2234 30.6922 50.5884 28.7732 48.7074 27.7692C48.1444 27.4682 48.0344 27.2912 48.0334 27.2912C48.0224 27.2552 48.0144 27.1342 48.0084 27.0452C47.8854 25.1342 46.7454 24.2032 43.4874 23.3562C39.9514 22.4382 35.8034 21.3512 33.6974 20.7982L34.6554 16.2112C37.0334 16.4852 42.3794 17.2732 48.1774 19.2352C53.8264 21.1452 58.4204 24.3302 60.4264 25.8582L56.0674 31.6642ZM63.4834 24.4622C63.2354 24.2472 57.3144 19.1612 49.1404 16.3952C40.9734 13.6332 33.8654 13.1102 33.5664 13.0902C32.8234 13.0322 32.1464 13.5452 31.9934 14.2792L31.5124 16.5802C28.3794 15.7362 26.8024 14.1222 25.1494 12.4242C23.0554 10.2762 20.8924 8.05518 15.9994 8.05518C11.1394 8.05518 7.99939 11.8022 7.99939 17.6012C7.99939 24.1632 14.0914 28.3492 19.9854 32.3972C25.3614 36.0892 30.4384 39.5772 30.4384 44.3282C30.4384 47.5882 29.5784 53.0582 23.8144 53.0582C18.2614 53.0582 16.9104 46.7702 16.5984 43.0222C15.8424 33.9342 6.35839 31.9012 1.44039 32.0892C0.613387 32.1212 -0.0306131 32.8162 0.00138686 33.6432C0.0323869 34.4702 0.743387 35.1172 1.55539 35.0842C2.01339 35.0582 12.9004 34.7752 13.6084 43.2702C14.2844 51.3942 18.0044 56.0552 23.8144 56.0552C30.9104 56.0552 33.4384 49.9972 33.4384 44.3282C33.4384 38.0012 27.4634 33.8952 21.6844 29.9272C16.1894 26.1512 10.9994 22.5872 10.9994 17.6012C10.9994 16.0642 11.3594 11.0522 15.9994 11.0522C19.6264 11.0522 21.0414 12.5052 22.9994 14.5152C24.7314 16.2922 26.8484 18.4562 30.9004 19.5132L30.4694 21.5812C30.3074 22.3612 30.7854 23.1322 31.5564 23.3352C31.5564 23.3352 37.7514 24.9642 42.7314 26.2582C44.3474 26.6782 44.8624 26.9902 45.0064 27.1022C45.0104 27.1452 45.0114 27.1902 45.0144 27.2352C45.0824 28.2892 45.4054 29.4032 47.2934 30.4132C49.8824 31.7962 55.8004 34.9122 55.8004 34.9122C56.0224 35.0292 56.2614 35.0852 56.4994 35.0852C56.9594 35.0852 57.4084 34.8742 57.7004 34.4862L63.7004 26.4932C64.1714 25.8642 64.0774 24.9772 63.4834 24.4622Z" fill="black"/>
</svg>

<svg xmlns="http://www.w3.org/2000/svg" width="64" height="64" fill="none" viewBox="0 0 64 64"><path fill="currentColor" fill-rule="evenodd" d="M56.067 31.664a1949 1949 0 0 1-7.36-3.895c-.563-.3-.673-.478-.674-.478a2 2 0 0 1-.025-.246c-.123-1.91-1.263-2.842-4.52-3.689a3804 3804 0 0 1-9.79-2.558l.957-4.587c2.378.274 7.724 1.062 13.522 3.024 5.65 1.91 10.243 5.095 12.25 6.623zm7.416-7.202c-.248-.215-6.169-5.3-14.343-8.067-8.167-2.762-15.275-3.285-15.574-3.305a1.5 1.5 0 0 0-1.573 1.19l-.48 2.3c-3.134-.844-4.71-2.458-6.364-4.156-2.094-2.148-4.257-4.369-9.15-4.369-4.86 0-8 3.747-8 9.546 0 6.562 6.092 10.748 11.986 14.796 5.376 3.692 10.453 7.18 10.453 11.931 0 3.26-.86 8.73-6.624 8.73-5.553 0-6.904-6.288-7.216-10.036-.756-9.088-10.24-11.12-15.158-10.933a1.497 1.497 0 0 0-1.439 1.554 1.507 1.507 0 0 0 1.554 1.441c.458-.026 11.345-.309 12.053 8.186.676 8.124 4.396 12.785 10.206 12.785 7.096 0 9.624-6.058 9.624-11.727 0-6.327-5.975-10.433-11.754-14.4C16.19 26.15 11 22.587 11 17.6c0-1.537.36-6.549 5-6.549 3.627 0 5.042 1.453 7 3.463 1.732 1.777 3.85 3.941 7.901 4.998l-.43 2.068a1.5 1.5 0 0 0 1.086 1.754s6.195 1.63 11.175 2.923c1.616.42 2.131.732 2.275.844q.005.065.008.133c.068 1.054.391 2.168 2.28 3.178 2.588 1.383 8.506 4.5 8.506 4.5a1.5 1.5 0 0 0 1.9-.426l6-7.994a1.5 1.5 0 0 0-.217-2.03" clip-rule="evenodd"/></svg>
